tests/fixtures/xmp/photo-mechanic-representative.xmp
<?xpacket begin="" id="W5M0MpCehiHzreSzNTczkc9d"?>
<!-- Hand-authored interoperability fixture, not a Photo Mechanic export. -->
<x:xmpmeta xmlns:x="adobe:ns:meta/">
 <rdf:RDF xmlns:rdf="http://www.w3.org/1999/02/22-rdf-syntax-ns#">
  <rdf:Description rdf:about=""
   xmlns:xmp="http://ns.adobe.com/xap/1.0/"
   xmlns:dc="http://purl.org/dc/elements/1.1/"
   xmlns:lr="http://ns.adobe.com/lightroom/1.0/"
   xmlns:photoshop="http://ns.adobe.com/photoshop/1.0/"
   xmlns:photomechanic="http://ns.camerabits.com/photomechanic/1.0/"
   xmlns:crs="http://ns.adobe.com/camera-raw-settings/1.0/"
   xmp:Rating="4" xmp:Label="Ready for WEB"
   photomechanic:Tagged="True" photomechanic:ColorClass="2"
   photomechanic:Prefs="1:2:4:001827" photomechanic:PMVersion="PM6"
   photoshop:Headline="Snow on the ridge" photoshop:Credit="Example Agency"
   photoshop:City="Montréal" photoshop:State="Québec" photoshop:Country="Canada"
   crs:CameraProfile="Fixture profile" crs:Exposure2012="0.50">
   <dc:title><rdf:Alt><rdf:li xml:lang="x-default">Winter ascent</rdf:li></rdf:Alt></dc:title>
   <dc:description><rdf:Alt>
    <rdf:li xml:lang="fr-CA">Un chien dans la neige.</rdf:li>
    <rdf:li xml:lang="x-default">A dog in the snow &amp; wind.</rdf:li>
   </rdf:Alt></dc:description>
   <dc:creator><rdf:Seq><rdf:li>Example Photographer</rdf:li><rdf:li>Example Assistant</rdf:li></rdf:Seq></dc:creator>
   <dc:rights><rdf:Alt><rdf:li xml:lang="x-default">© 2026 Example Photographer</rdf:li></rdf:Alt></dc:rights>
   <dc:subject><rdf:Bag><rdf:li>dog</rdf:li><rdf:li>snow</rdf:li><rdf:li>Assignment 27</rdf:li></rdf:Bag></dc:subject>
   <lr:hierarchicalSubject><rdf:Bag><rdf:li>Animals|dog</rdf:li><rdf:li>Weather|snow</rdf:li></rdf:Bag></lr:hierarchicalSubject>
   <crs:ToneCurvePV2012><rdf:Seq><rdf:li>0, 0</rdf:li><rdf:li>128, 142</rdf:li><rdf:li>255, 255</rdf:li></rdf:Seq></crs:ToneCurvePV2012>
  </rdf:Description>
 </rdf:RDF>
</x:xmpmeta>
<?xpacket end="w"?>
